X: 149
T: Dun ji lu wan The bend of Tanjid
%%abc-version 2.0
%%abcx-abcm2ps-target-version 5.9.1 (29 Sep 2008)
%%abc-creator hum2abc beta
%%abcx-conversion-date 2013/10/02 07:44:27
%%abc-edited-by Helmut Schaffrath
%%humdrum-veritas 1671534159
%%humdrum-veritas-data 3927088214
%%continueall 1
%%barnumbers 0
L: 1/8
M: 2/4
K: C
E2A2- [I:setbarnb 1]| 
A2c d | 
A3G | 
E2A,2 | 
A G G E | 
D2E G | 
A4- | 
A4 | 
EC2A, | 
A3G | 
A> GE2 | 
D CA,2 | 
E3A | 
E DC2 | 
A,4- | 
A,4 |]  



